X:133
T:John Kelly's
R:Reel
O:Ireland
S:Music from Ireland Vol. 3
B:Music from Ireland Vol. 3
Z:Transcription, chords:Mike Long
M:C|
L:1/8
K:C
"Dm"AddB "(C)"cdec|"Am"dcAB (3(cBA) BG|\
"Dm"Add2 "(C)"cdec|"Am"dcAB cedc|"Dm"AddB "(C)"cdec|
"Am"dcAB cAA2|"F"f3d "C"eged|"Am"cAAG cdec|]\
"Dm"Add2 ABcB|"Am"A2GE DEFG|"Dm"Add2 ABcB|
"Am"A2GE CDEG|"Dm"Add2 ABcB|\
"Am"A2GE "(G)"D2EG|"Dm"Add2 ABcB|"Am"AcGE CDEG|]
